material/.icons/material/format-annotation-plus.svg

<svg xmlns="http://www.w3.org/2000/svg" viewBox="0 0 24 24"><path d="M8.5 7h2L16 21h-2.4l-1.1-3H6.3l-1.1 3H3L8.5 7m-1.4 9h4.8L9.5 9.7 7.1 16M22 5v2h-3v3h-2V7h-3V5h3V2h2v3h3z"/></svg>

<?xml version="1.0" encoding="UTF-8"?><!DOCTYPE svg PUBLIC "-//W3C//DTD SVG 1.1//EN" "http://www.w3.org/Graphics/SVG/1.1/DTD/svg11.dtd"><svg xmlns="http://www.w3.org/2000/svg" xmlns:xlink="http://www.w3.org/1999/xlink" version="1.1" id="mdi-format-annotation-plus" width="24" height="24" viewBox="0 0 24 24"><path d="M8.5,7H10.5L16,21H13.6L12.5,18H6.3L5.2,21H3L8.5,7M7.1,16H11.9L9.5,9.7L7.1,16M22,5V7H19V10H17V7H14V5H17V2H19V5H22Z" /></svg>
